Arsenal/img/howWeWorkIcon4.svg

<svg width="40" height="40" viewBox="0 0 40 40" fill="none" xmlns="http://www.w3.org/2000/svg">
<path d="M27.8496 23.7802C29.4815 21.3561 30.4349 18.4393 30.4349 15.3039C30.4349 6.91293 23.6084 0.0863647 15.2174 0.0863647C6.82648 0.0863647 0 6.91293 0 15.3038C0 23.6946 6.82656 30.5213 15.2175 30.5213C18.4148 30.5213 21.3843 29.5293 23.8362 27.8381L35.9645 39.9137L40 35.8782L27.8496 23.7802ZM15.2175 26.2471C9.19664 26.2471 4.29812 21.3487 4.29812 15.3278C4.29812 9.30691 9.19656 4.40847 15.2175 4.40847C21.2384 4.40847 26.1369 9.30691 26.1369 15.3278C26.1369 21.3488 21.2384 26.2471 15.2175 26.2471Z" fill="#DE6518"/>
</svg>

<svg width="40" height="40" fill="none" xmlns="http://www.w3.org/2000/svg"><path d="M27.85 23.78a15.13 15.13 0 002.585-8.476c0-8.391-6.827-15.218-15.218-15.218C6.827.086 0 6.913 0 15.304c0 8.39 6.827 15.217 15.217 15.217a15.13 15.13 0 008.62-2.683l12.128 12.076L40 35.878 27.85 23.78zm-12.633 2.467c-6.02 0-10.919-4.898-10.919-10.92 0-6.02 4.899-10.919 10.92-10.919 6.02 0 10.919 4.899 10.919 10.92 0 6.02-4.899 10.92-10.92 10.92z" fill="#DE6518"/></svg>
